X:1
T:Title
%%score { 1 | 2 } ( 3 4 )
L:1/8
Q:1/4=108
M:4/4
K:Bb
V:1 treble nm="Grand Piano, Soprano"
V:2 treble 
V:3 bass nm="Choir Pad, Chula Vista, 87.87.77"
V:4 bass 
V:1
 F3 B d2 B2 | G2 B2 F2 D2 | F3 B d2 B2 | B2 AB c4 | d2 _d=d e2 de | f2 d2 B2 e2 | d3 B F2 B2 | %7
w: By~W.~H.~A.~Hall,~1883 * * *|||||||
 c2 f2 B4 | D3 D G2 ^FG | B2 B2 d4 | B3 G G2 c2 | A2 f2 B4- | B4 z4 |] %13
w: ||||||
V:2
 D3 D F2 D2 | E2 E2 D2 z2 | D3 D F2 D2 | =E2 E2 _E4 | F2 F2 A2 A2 | B2 F2 G2 G2 | F3 D D2 D2 | %7
 E2 E2 D4 | z8 | D2 D2 ^F4 | G3 E E2 E2 | E2 E2 D4- | D4 z4 |] %13
V:3
 [B,,B,]3 [B,,F,] [B,,B,]2 [B,,B,]2 | [E,B,]2 [E,G,]2 [B,,B,]2 [B,,F,]2 | %2
 [B,,B,]3 [B,,F,] [B,,B,]2 [B,,B,]2 | [C,G,]2 ^F,G, [F,A,]4 | [F,B,]2 A,B, [F,C]2 =B,C | %5
 [F,D]2 [F,B,]2 [E,E]2 [E,B,]2 | [B,,B,]3 [B,,F,] [B,,B,]2 [B,,B,]2 | [F,A,]2 [F,C]2 [B,,B,]4 | %8
 D,3 D, G,2 ^F,G, | [G,B,]2 [G,B,]2 [D,A,]4 | [E,B,]3 [E,B,] [E,B,]2 [E,G,]2 | %11
 [F,C]2 [F,A,]2 [B,,F,]4- | [B,,F,]4 z4 |] %13
V:4
 x8 | x8 | x8 | z2 C,2 z4 | z2 F,2 z2 F,2 | x8 | x8 | x8 | x8 | x8 | x8 | x8 | x8 |] %13

